X: 05020
T: DIRK'S HORNPIPE
C: Bob McQuillen 29 Nov 80
B: Bob's Note Book 5 #20
%R: hornpipe, reel
Z: 2021 John Chambers <jc:trillian.mit.edu>
M: C
L: 1/8
K: Em
B,D \
| E2B,E GEGA | BGAB AGED | E2B,E G2EG | DEDB, D2B,D |\
| E2B,E GEGA | BGAB GEGA | B2dB  AGBA | GEED E2 :|
|: gf \
| eged BGAB | d2Bd BAGA | Bdef gbab | g2ed e3f |\
| gfeg fed2 | edBG AFD2 | EFGe dBAB | G2E2 E2 :|
%%begintext align
%% A real nice
%% young man is Dirk Hermance - he
%% was always so helpful at Fox Hollow -
%% He was real fortunate, you know - he
%% married that wonderful Mary Linebaugh!!
%%endtext
